app/[lang]/(home)/(new-home)/assets/aiagent-appicons/deepseek.svg

<svg width="32" height="32" viewBox="0 0 32 32" fill="none" xmlns="http://www.w3.org/2000/svg">
<g opacity="0.5" clip-path="url(#clip0_66_398)">
<path d="M31.6649 6.77977C31.3253 6.61405 31.1798 6.92933 30.9804 7.08967C30.913 7.14357 30.8551 7.21093 30.7985 7.27157C30.3027 7.80378 29.7247 8.15005 28.9688 8.10828C27.8626 8.04765 26.9194 8.39528 26.0854 9.24278C25.9062 8.19721 25.3174 7.57472 24.4214 7.17455C23.9511 6.96571 23.4769 6.75822 23.1495 6.3055C22.9191 5.98482 22.8571 5.62642 22.7412 5.27476C22.6684 5.06052 22.5957 4.8436 22.3505 4.80587C22.085 4.7641 21.9813 4.98776 21.8762 5.1737C21.4585 5.93766 21.2968 6.77977 21.3116 7.63266C21.3494 9.54728 22.1578 11.0739 23.7639 12.1598C23.9471 12.2851 23.9929 12.4105 23.9363 12.5923C23.8272 12.9656 23.6965 13.3294 23.5806 13.7026C23.5079 13.9424 23.3987 13.995 23.1441 13.8912C22.2781 13.5197 21.4917 12.985 20.8279 12.3161C19.6854 11.2113 18.6533 9.99057 17.3652 9.03528C17.062 8.81161 16.7602 8.60412 16.4476 8.40606C15.1326 7.12605 16.6201 6.07644 16.9637 5.95383C17.3234 5.82448 17.089 5.37716 15.9262 5.38255C14.7634 5.38794 13.699 5.77733 12.3435 6.29472C12.1425 6.37307 11.9352 6.43393 11.7237 6.47661C10.4563 6.23944 9.16053 6.19402 7.87966 6.34188C5.36546 6.62483 3.35787 7.81321 1.88115 9.84505C0.109348 12.2838 -0.308339 15.0594 0.202316 17.9536C0.739919 21 2.29344 23.5263 4.68369 25.5002C7.15881 27.5455 10.0126 28.548 13.2665 28.3566C15.2417 28.2421 17.4433 27.9767 19.9252 25.8748C20.5517 26.1847 21.2079 26.3086 22.2993 26.4029C23.1387 26.4824 23.9471 26.3612 24.5723 26.2318C25.5532 26.0243 25.4845 25.1162 25.1301 24.9478C22.2575 23.6085 22.8867 24.1528 22.3141 23.7136C23.7746 21.9822 25.9749 20.1848 26.8359 14.3628C26.9032 13.9007 26.8453 13.611 26.8359 13.235C26.8305 13.0087 26.8817 12.9184 27.1417 12.8928C27.8639 12.8198 28.5645 12.6045 29.2032 12.2595C31.0653 11.2396 31.8144 9.56884 31.9923 7.56395C32.0192 7.25809 31.9869 6.94011 31.6649 6.77977ZM15.4411 24.8225C12.6561 22.6303 11.3047 21.9094 10.7482 21.9418C10.2268 21.9701 10.3198 22.5683 10.4343 22.9577C10.5542 23.3417 10.7105 23.6071 10.9301 23.944C11.0824 24.1676 11.1861 24.5018 10.7792 24.7497C9.88186 25.3075 8.32295 24.5624 8.24884 24.526C6.43393 23.4576 4.91678 22.0442 3.84697 20.112C2.81622 18.2527 2.21664 16.2572 2.11694 14.1284C2.08999 13.6123 2.24224 13.4304 2.7529 13.3388C3.42547 13.2105 4.11442 13.1923 4.79282 13.2849C7.63444 13.7026 10.0543 14.9759 12.0821 16.9888C13.2409 18.1381 14.1167 19.5098 15.0194 20.8491C15.9774 22.2732 17.0108 23.6287 18.3259 24.7389C18.788 25.1283 19.1599 25.4261 19.5129 25.6444C18.4444 25.7629 16.6605 25.7885 15.4411 24.8225ZM16.775 16.2262C16.775 16.1174 16.8183 16.0131 16.8952 15.9361C16.9721 15.8592 17.0765 15.8159 17.1853 15.8159C17.2941 15.8159 17.3985 15.8592 17.4754 15.9361C17.5524 16.0131 17.5956 16.1174 17.5956 16.2262C17.5956 16.4553 17.4123 16.6358 17.1833 16.6358C17.1293 16.6364 17.0757 16.6261 17.0258 16.6056C16.9758 16.5851 16.9305 16.5548 16.8924 16.5165C16.8544 16.4782 16.8244 16.4327 16.8042 16.3826C16.7841 16.3325 16.7741 16.2789 16.775 16.2249V16.2262ZM20.9209 18.3578C20.6555 18.4656 20.39 18.5599 20.134 18.5707C19.7509 18.5823 19.3752 18.4625 19.0696 18.2311C18.7058 17.9253 18.4458 17.7541 18.3339 17.2179C18.2973 16.9571 18.3046 16.6921 18.3555 16.4337C18.4498 15.9958 18.3447 15.7183 18.0389 15.4636C17.7869 15.2548 17.4703 15.1995 17.12 15.1995C16.9999 15.1925 16.8834 15.1564 16.7804 15.0944C16.6349 15.0203 16.515 14.8384 16.6295 14.6148C16.6659 14.5433 16.8437 14.3682 16.8855 14.3359C17.3598 14.065 17.9068 14.154 18.4134 14.3574C18.8837 14.5487 19.2367 14.9018 19.7473 15.3989C20.2701 16.0012 20.3631 16.1696 20.6609 16.6197C20.8953 16.9754 21.1095 17.3392 21.2551 17.7541C21.344 18.0128 21.2281 18.2257 20.9209 18.3578Z" fill="#4D6BFE"/>
</g>
<defs>
<clipPath id="clip0_66_398">
<rect width="32" height="32" fill="white"/>
</clipPath>
</defs>
</svg>

<svg xmlns="http://www.w3.org/2000/svg" fill="none" viewBox="0 0 32 32">
  <g clip-path="url(#a)" opacity=".5">
    <path
      fill="#4D6BFE"
      d="M31.66 6.78c-.33-.17-.48.15-.68.31-.07.05-.12.12-.18.18-.5.53-1.08.88-1.83.84a3.56 3.56 0 0 0-2.88 1.13 2.62 2.62 0 0 0-1.67-2.07c-.47-.2-.94-.41-1.27-.86-.23-.33-.3-.68-.4-1.04-.08-.2-.15-.43-.4-.46-.27-.05-.37.18-.47.36-.42.77-.58 1.61-.57 2.46a5.31 5.31 0 0 0 2.45 4.53c.19.13.23.25.18.43-.11.38-.24.74-.36 1.11-.07.24-.18.3-.44.2a7.34 7.34 0 0 1-2.31-1.58c-1.14-1.1-2.18-2.33-3.46-3.28-.3-.23-.61-.44-.92-.63-1.32-1.28.17-2.33.51-2.46.36-.13.13-.57-1.03-.57-1.17 0-2.23.4-3.59.91-.2.08-.4.14-.62.19a12.87 12.87 0 0 0-3.84-.14 8.3 8.3 0 0 0-6 3.5C.11 12.29-.3 15.07.2 17.96a12.4 12.4 0 0 0 4.48 7.55 11.96 11.96 0 0 0 8.59 2.86c1.97-.12 4.17-.38 6.66-2.49a6.3 6.3 0 0 0 2.37.53c.84.08 1.65-.04 2.27-.17.98-.2.91-1.11.56-1.28-2.87-1.34-2.24-.8-2.82-1.24 1.46-1.73 3.66-3.53 4.53-9.35.06-.46 0-.75 0-1.13 0-.22.04-.31.3-.34a5.5 5.5 0 0 0 2.06-.63c1.87-1.02 2.61-2.7 2.8-4.7.02-.3-.01-.62-.34-.78ZM15.44 24.82c-2.78-2.19-4.14-2.91-4.7-2.88-.51.03-.42.63-.3 1.02.11.38.27.65.49.98.15.23.26.56-.15.81-.9.56-2.46-.19-2.53-.22a11.6 11.6 0 0 1-4.4-4.42 13.52 13.52 0 0 1-1.73-5.98c-.03-.52.12-.7.63-.8a6.32 6.32 0 0 1 2.04-.05c2.84.42 5.26 1.7 7.3 3.7 1.15 1.16 2.03 2.53 2.93 3.87.96 1.42 2 2.78 3.3 3.89.47.39.84.69 1.2.9-1.08.12-2.86.15-4.08-.82Zm1.33-8.6a.41.41 0 1 1 .03.16.4.4 0 0 1-.03-.16Zm4.15 2.14c-.26.1-.53.2-.79.21-.38.01-.75-.1-1.06-.34-.36-.3-.62-.48-.74-1.01-.03-.26-.03-.53.03-.79.09-.43-.02-.71-.32-.97-.25-.2-.57-.26-.92-.26a.74.74 0 0 1-.34-.1c-.15-.08-.27-.26-.15-.49.04-.07.21-.24.26-.27.47-.28 1.02-.19 1.52.02.47.19.83.54 1.34 1.04.52.6.61.77.91 1.22.24.36.45.72.6 1.13.08.26-.03.48-.34.6Z"
    />
  </g>
  <defs>
    <clipPath id="a"><path fill="#fff" d="M0 0h32v32H0z" /></clipPath>
  </defs>
</svg>
